X: 928
T: Gül Olsam Sızsam İmbiklerinden
C: Bîmen Şen
O: Turkey
F: http://compmusic.upf.edu/node/140
N: suzidil--sarki--ciftesofyan--gul_olsam--bimen_sen
N: makam= suzidil
N: form= sarki
N: usul= ciftesofyan = 9/8
M: 9/8
L: 1/16
K: C ^1/4f ^g ^d 
Q: 1/4=264
%%MIDI tuningsystem comma53
e4 z4 z4 z4 z2 | =f2 g2f2 g2.e4z4z2  | \
w:  ARANAĞME  |   | 
=f2g2 f2g2 e4 c'2b2 a2 | g3=fg2 a2gf ede4z2  | 
w:   |   | 
g2a4a2 abag a4 z2 | ^3/4c2 =d4 d2de dcd4z2  | \
w:   |   | 
B4 c4 B2{c}A2 G2A2 B2 | 
w:   | 
G2 =F2G2 A2GF EDE4z2  | e4 z4 z4 z4 z2 | \
w:   |  ARANAĞME  | 
=f2 g2f2 g2.e4z4z2  | 
w:   | 
=f2g2 f2g2 e4 c'2b2 a2 | g3=fg2 a2gf ede4z2  | \
w:   |   | 
g2a4a2 abag a4 z2 | 
w:   | 
^3/4c2 =d4 d2de dcd4z2  | B4 c4 B2{c}A2 G2A2 B2 | \
w:   |   | 
G2 =F2G2 A2GF EDE4z2  | 
w:   | 
e8 e4 e4 z2 | =f2 g2f2 g2e8z2  | g2=f2 f2e2 e2d2 c2B2 c2 | \
w:  Gül  ol sam   |  sız *  *  *  sam   |  im *  bik *  le *  rin  | 
ed e=fe2 d2c2 B2A2 Ace2  | 
w:  den   *  *  *  *  *  *  *  *  SAZ  | 
e8 e4 e4 z2 | =f2 g2f2 g2e8z2  | b2a2 a2g2 g2=f2 g2f2 e2 | \
w:  Gül  ol sam   |  sız *  *  *  sam   |  im *  bik *  le *  rin  | 
e6 d2cB cde4z2  | 
w:  den   SAZ  | 
e8 e4 e4 =d2 | =d2 e2=f2 =g2e2 d2c2 B2A2  | \
w:  Yaş  ol sam   |  ak *  *  *  sam   | 
B4 c4 B2A2 G2A2 c2 | B8BE =FGAB cde2  | 
w:  kir pik le *  rin  |  den   SAZ  | 
e2e=d c2e2 d2c2 B2c2 d2 | c2 cBA2 c2B2 A2G2 =F2E2  | \
w:  Yaş  *  *  *  *  ol *  sam   |  ak *  *  *  *  sam   | 
B2A2 A2G2 G2=F2 G2F2 E2 | 
w:  kir *  pik *  le *  rin  | 
E6 d2cB cde4z2  | e8 e4 e4 =d2 | =d2 e2=f2 =g2e2 d2c2 B2A2  | 
w:  den   SAZ  |  Yaş  ol sam   |  ak *  *  *  sam   | 
B4 c4 B2A2 G2A2 c2 | B8BE =FGAB cde2  | \
w:  kir pik le *  rin  |  den   SAZ  | 
e2e=d c2e2 d2c2 B2c2 d2 | 
w:  Yaş  *  *  *  *  ol *  sam   | 
c2 cBA2 c2B2 A2G2 =F2E2  | B2A2 A2G2 G2=F2 G2F2 E2 | \
w:  ak *  *  *  *  sam   |  kir *  pik *  le *  rin  | 
E6 a2g2 a2b4z2  | 
w:  den   SAZ  | 
a4 a2b2 b4 b4 z2 | b4c'4b2 a2g4z2  | \
w:  Kıv *  *  ran sam   |  aş *  kın   | 
a4 b4 c'4 b2a2 g2 | g8g^f gaba b^3/4c'=d'2  | 
w:  et tik le rin  |  den   SAZ  | 
=d'3c' b2d'2 c'3b a4 c'2 | b2 bag2 a2g2 =f2e4z2  | \
w:  Kıv *  *  *  ran *  sam   |  aş *  *  *  *  kın   | 
b2a2 a2g2 g2=f2 g2f2 e2 | 
w:  et *  tik *  le *  rin  | 
e6 d2c2 d2e4z2  | e8 e4 e4 =d2 | =d2 e2=f2 =g2e2 d2c2 B2A2  | \
w:  den   SAZ  |  Yaş  ol sam   |  ak *  *  *  sam   | 
B4 c4 B2A2 G2A2 c2 | 
w:  kir pik le *  rin  | 
B8BE =FGAB cde2  | e2e=d c2e2 d2c2 B2c2 d2 | \
w:  den   SAZ  |  Yaş  *  *  *  *  ol *  sam   | 
c2 cBA2 c2B2 A2G2 =F2E2  | 
w:  ak *  *  *  *  sam   | 
B2A2 A2G2 G2=F2 G2F2 E2 | E6 d2cB cde4z2  | \
w:  kir *  pik *  le *  rin  |  den   SAZ  | 
e8 e4 e4 =d2 | 
w:  Yaş  ol sam   | 
=d2 e2=f2 =g2e2 d2c2 B2A2  | B4 c4 B2A2 G2A2 c2 | \
w:  ak *  *  *  sam   |  kir pik le *  rin  | 
B8BE =FGAB cde2  | 
w:  den   SAZ  | 
e2e=d c2e2 d2c2 B2c2 d2 | c2 cBA2 c2B2 A2G2 =F2E2  | \
w:  Yaş  *  *  *  *  ol *  sam   |  ak *  *  *  *  sam   | 
B2A2 A2G2 G2=F2 G2F2 E2 | 
w:  kir *  pik *  le *  rin  | 
E6 BcBA G=FE4z2  | |


